polaris-icons/icons/new-icons/EmailMajor.svg

<svg width="20" height="20" viewBox="0 0 20 20" fill="none" xmlns="http://www.w3.org/2000/svg">
<path d="M6.56716 7.57054C6.19181 7.39538 5.74552 7.55766 5.57036 7.93301C5.39519 8.30837 5.55748 8.75465 5.93283 8.92982L9.47139 10.5811C9.80645 10.7375 10.1935 10.7375 10.5286 10.5811L14.0672 8.92982C14.4425 8.75465 14.6048 8.30837 14.4296 7.93301C14.2545 7.55766 13.8082 7.39538 13.4328 7.57054L10 9.17253L6.56716 7.57054Z" fill="#4A4A4A"/>
<path fill-rule="evenodd" clip-rule="evenodd" d="M6.75 4.5C4.67893 4.5 3 6.17893 3 8.25V11.75C3 13.8211 4.67893 15.5 6.75 15.5H13.25C15.3211 15.5 17 13.8211 17 11.75V8.25C17 6.17893 15.3211 4.5 13.25 4.5H6.75ZM4.5 8.25C4.5 7.00736 5.50736 6 6.75 6H13.25C14.4926 6 15.5 7.00736 15.5 8.25V11.75C15.5 12.9926 14.4926 14 13.25 14H6.75C5.50736 14 4.5 12.9926 4.5 11.75V8.25Z" fill="#4A4A4A"/>
</svg>

<svg viewBox="0 0 20 20" xmlns="http://www.w3.org/2000/svg"><path d="M6.567 7.57a.75.75 0 0 0-.634 1.36l3.538 1.651a1.25 1.25 0 0 0 1.058 0l3.538-1.651a.75.75 0 0 0-.634-1.36l-3.433 1.603-3.433-1.602Z" fill="#5C5F62"/><path fill-rule="evenodd" d="M6.75 4.5a3.75 3.75 0 0 0-3.75 3.75v3.5a3.75 3.75 0 0 0 3.75 3.75h6.5a3.75 3.75 0 0 0 3.75-3.75v-3.5a3.75 3.75 0 0 0-3.75-3.75h-6.5Zm-2.25 3.75a2.25 2.25 0 0 1 2.25-2.25h6.5a2.25 2.25 0 0 1 2.25 2.25v3.5a2.25 2.25 0 0 1-2.25 2.25h-6.5a2.25 2.25 0 0 1-2.25-2.25v-3.5Z" fill="#5C5F62"/></svg>
